; generated by Slic3r 0.9.9 on 2013-05-08 at 15:25:21

; layer_height = 0.2
; perimeters = 3
; top_solid_layers = 3
; bottom_solid_layers = 3
; fill_density = 0.4
; perimeter_speed = 30
; infill_speed = 60
; travel_speed = 130
; nozzle_diameter = 0.5
; filament_diameter = 1.75
; extrusion_multiplier = 1
; perimeters extrusion width = 0.85mm
; infill extrusion width = 1.02mm
; solid infill extrusion width = 0.85mm
; top infill extrusion width = 0.85mm
; first layer extrusion width = 0.64mm

G21 ; set units to millimeters
M107
M190 S90 ; wait for bed temperature to be reached
M104 S245 ; set temperature
G28 ; home all axes
M109 S245 ; wait for temperature to be reached
G90 ; use absolute coordinates
G92 E0
M82 ; use absolute distances for extrusion
G1 F1800.000 E-2.00000
G1 Z0.820
G92 E0
G1 X50.570 Y52.160 F7800.000
G1 Z0.320
G1 F1800.000 E2.00000
G1 X51.200 Y51.590 F540.000 E2.06894
G1 X51.840 Y51.120 E2.13338
G1 X52.400 Y50.790 E2.18613
G1 X53.030 Y50.490 E2.24275
G1 X53.720 Y50.230 E2.30259
G1 X54.310 Y50.080 E2.35199
G1 X54.840 Y49.980 E2.39575
G1 X55.930 Y49.890 E2.48451
G1 X103.990 Y49.890 E6.38452
G1 X104.780 Y49.940 E6.44876
G1 X105.560 Y50.050 E6.51268
G1 X106.330 Y50.260 E6.57745
G1 X106.900 Y50.470 E6.62674
G1 X107.320 Y50.650 E6.66382
G1 X107.900 Y50.960 E6.71719
G1 X108.450 Y51.330 E6.77098
G1 X109.110 Y51.860 E6.83967
G1 X109.740 Y52.510 E6.91313
G1 X110.110 Y52.960 E6.96040
G1 X110.300 Y53.240 E6.98786
G1 X110.650 Y53.810 E7.04214
G1 X110.910 Y54.340 E7.09004
G1 X111.120 Y54.830 E7.13330
G1 X111.290 Y55.330 E7.17616
G1 X111.390 Y55.710 E7.20805
G1 X111.570 Y56.760 E7.29450
G1 X111.600 Y57.370 E7.34406
G1 X111.610 Y58.440 E7.43089
G1 X111.610 Y102.490 E11.00550
G1 X111.530 Y103.530 E11.09014
G1 X111.490 Y103.780 E11.11069
G1 X111.230 Y104.830 E11.19846
G1 X111.020 Y105.400 E11.24776
G1 X110.690 Y106.120 E11.31203
G1 X110.350 Y106.680 E11.36519
G1 X110.010 Y107.150 E11.41227
G1 X109.390 Y107.850 E11.48815
G1 X108.850 Y108.360 E11.54842
G1 X108.370 Y108.720 E11.59711
G1 X107.900 Y109.020 E11.64236
G1 X106.960 Y109.500 E11.72801
G1 X106.270 Y109.760 E11.78785
G1 X105.680 Y109.910 E11.83725
G1 X105.150 Y110.010 E11.88101
G1 X104.060 Y110.100 E11.96977
G1 X56.000 Y110.110 E15.86978
G1 X54.960 Y110.030 E15.95443
G1 X54.710 Y109.990 E15.97497
G1 X53.660 Y109.730 E16.06275
G1 X53.090 Y109.520 E16.11204
G1 X52.670 Y109.340 E16.14912
G1 X52.090 Y109.030 E16.20249
G1 X51.540 Y108.660 E16.25628
G1 X50.880 Y108.130 E16.32497
G1 X50.250 Y107.480 E16.39843
G1 X49.770 Y106.870 E16.46142
G1 X49.350 Y106.200 E16.52559
G1 X48.980 Y105.450 E16.59345
G1 X48.740 Y104.770 E16.65197
G1 X48.570 Y104.160 E16.70336
G1 X48.420 Y103.230 E16.77980
G1 X48.390 Y102.560 E16.83422
G1 X48.400 Y57.060 E20.52650
G1 X48.460 Y56.440 E20.57704
G1 X48.570 Y55.820 E20.62814
G1 X48.720 Y55.280 E20.67362
G1 X48.970 Y54.590 E20.73318
G1 X49.150 Y54.170 E20.77026
G1 X49.300 Y53.870 E20.79748
G1 X49.640 Y53.310 E20.85064
G1 X49.980 Y52.840 E20.89771
G1 X50.507 Y52.226 E20.96335
G1 F1800.000 E18.96335
G1 Z0.820
G92 E0
G1 X91.534 Y65.610 F7800.000
G1 Z0.320
G1 F1800.000 E2.00000
G1 X91.673 Y65.183 F540.000 E2.03647
G1 X91.865 Y64.776 E2.07291
G1 X92.105 Y64.397 E2.10937
G1 X92.392 Y64.051 E2.14585
G1 X92.719 Y63.743 E2.18232
G1 X93.083 Y63.479 E2.21878
G1 X93.375 Y63.319 E2.24577
G1 X93.894 Y63.097 E2.29162
G1 X94.330 Y62.985 E2.32810
G1 X94.775 Y62.929 E2.36456
G1 X95.225 Y62.929 E2.40102
G1 X95.670 Y62.985 E2.43747
G1 X96.106 Y63.097 E2.47394
G1 X96.523 Y63.263 E2.51041
G1 X96.917 Y63.479 E2.54686
G1 X97.281 Y63.743 E2.58331
G1 X97.608 Y64.051 E2.61978
G1 X97.895 Y64.397 E2.65626
G1 X98.135 Y64.776 E2.69272
G1 X98.327 Y65.183 E2.72916
G1 X98.466 Y65.610 E2.76563
G1 X98.550 Y66.052 E2.80209
G1 X98.578 Y66.500 E2.83855
G1 X98.550 Y66.948 E2.87501
G1 X98.466 Y67.390 E2.91147
G1 X98.327 Y67.817 E2.94795
G1 X98.135 Y68.224 E2.98439
G1 X97.895 Y68.603 E3.02086
G1 X97.608 Y68.949 E3.05732
G1 X97.281 Y69.257 E3.09379
G1 X96.917 Y69.521 E3.13026
G1 X96.523 Y69.737 E3.16670
G1 X96.106 Y69.903 E3.20316
G1 X95.670 Y70.015 E3.23963
G1 X95.225 Y70.071 E3.27609
G1 X94.775 Y70.071 E3.31256
G1 X94.330 Y70.015 E3.34901
G1 X93.894 Y69.903 E3.38548
G1 X93.477 Y69.737 E3.42194
G1 X93.083 Y69.521 E3.45838
G1 X92.719 Y69.257 E3.49486
G1 X92.392 Y68.949 E3.53132
G1 X92.105 Y68.603 E3.56779
G1 X91.865 Y68.224 E3.60426
G1 X91.673 Y67.817 E3.64070
G1 X91.534 Y67.390 E3.67718
G1 X91.450 Y66.948 E3.71364
G1 X91.422 Y66.500 E3.75009
G1 X91.450 Y66.052 E3.78655
G1 X91.517 Y65.700 E3.81559
G1 X92.112 Y65.839 F7800.000
G1 X92.242 Y65.408 F540.000 E3.85214
G1 X92.400 Y65.071 E3.88236
G1 X92.600 Y64.756 E3.91260
G1 X92.837 Y64.469 E3.94284
G1 X93.109 Y64.214 E3.97308
G1 X93.410 Y63.995 E4.00331
G1 X93.737 Y63.816 E4.03354
G1 X94.083 Y63.678 E4.06377
G1 X94.444 Y63.586 E4.09401
G1 X94.814 Y63.539 E4.12424
G1 X95.186 Y63.539 E4.15447
G1 X95.556 Y63.586 E4.18470
G1 X95.917 Y63.678 E4.21494
G1 X96.263 Y63.816 E4.24517
G1 X96.590 Y63.995 E4.27540
G1 X96.891 Y64.214 E4.30563
G1 X97.163 Y64.469 E4.33587
G1 X97.400 Y64.756 E4.36611
G1 X97.600 Y65.071 E4.39634
G1 X97.758 Y65.408 E4.42656
G1 X97.874 Y65.762 E4.45680
G1 X97.943 Y66.128 E4.48704
G1 X97.967 Y66.500 E4.51727
G1 X97.943 Y66.872 E4.54750
G1 X97.874 Y67.238 E4.57773
G1 X97.758 Y67.592 E4.60798
G1 X97.600 Y67.929 E4.63820
G1 X97.400 Y68.244 E4.66843
G1 X97.163 Y68.531 E4.69867
G1 X96.891 Y68.786 E4.72891
G1 X96.590 Y69.005 E4.75915
G1 X96.263 Y69.184 E4.78937
G1 X95.917 Y69.322 E4.81960
G1 X95.556 Y69.414 E4.84984
G1 X95.186 Y69.461 E4.88007
G1 X94.814 Y69.461 E4.91031
G1 X94.444 Y69.414 E4.94053
G1 X94.083 Y69.322 E4.97077
G1 X93.737 Y69.184 E5.00100
G1 X93.410 Y69.005 E5.03123
G1 X93.109 Y68.786 E5.06147
G1 X92.837 Y68.531 E5.09170
G1 X92.600 Y68.244 E5.12194
G1 X92.400 Y67.929 E5.15218
G1 X92.242 Y67.592 E5.18240
G1 X92.126 Y67.238 E5.21264
G1 X92.057 Y66.872 E5.24287
G1 X92.033 Y66.500 E5.27310
G1 X92.057 Y66.128 E5.30334
G1 X92.095 Y65.929 E5.31979
G1 X92.711 Y65.953 F7800.000
G1 X92.810 Y65.633 F540.000 E5.34701
G1 X92.936 Y65.365 E5.37101
G1 X93.094 Y65.115 E5.39501
G1 X93.283 Y64.887 E5.41902
G1 X93.499 Y64.685 E5.44303
G1 X93.738 Y64.511 E5.46704
G1 X93.997 Y64.369 E5.49104
G1 X94.272 Y64.260 E5.51504
G1 X94.559 Y64.186 E5.53905
G1 X94.852 Y64.149 E5.56305
G1 X95.148 Y64.149 E5.58706
G1 X95.441 Y64.186 E5.61106
G1 X95.728 Y64.260 E5.63507
G1 X96.003 Y64.369 E5.65907
G1 X96.262 Y64.511 E5.68307
G1 X96.501 Y64.685 E5.70708
G1 X96.717 Y64.887 E5.73109
G1 X96.906 Y65.115 E5.75510
G1 X97.064 Y65.365 E5.77910
G1 X97.190 Y65.633 E5.80310
G1 X97.282 Y65.914 E5.82711
G1 X97.337 Y66.205 E5.85111
G1 X97.356 Y66.500 E5.87512
G1 X97.337 Y66.795 E5.89912
G1 X97.282 Y67.086 E5.92313
G1 X97.190 Y67.367 E5.94714
G1 X97.064 Y67.635 E5.97114
G1 X96.906 Y67.885 E5.99514
G1 X96.717 Y68.112 E6.01915
G1 X96.501 Y68.315 E6.04316
G1 X96.262 Y68.489 E6.06717
G1 X96.003 Y68.631 E6.09117
G1 X95.728 Y68.740 E6.11517
G1 X95.441 Y68.814 E6.13918
G1 X95.148 Y68.851 E6.16318
G1 X94.852 Y68.851 E6.18719
G1 X94.559 Y68.814 E6.21119
G1 X94.272 Y68.740 E6.23520
G1 X93.997 Y68.631 E6.25920
G1 X93.738 Y68.489 E6.28320
G1 X93.499 Y68.315 E6.30721
G1 X93.283 Y68.112 E6.33122
G1 X93.094 Y67.885 E6.35522
G1 X92.936 Y67.635 E6.37923
G1 X92.810 Y67.367 E6.40323
G1 X92.718 Y67.086 E6.42724
G1 X92.663 Y66.795 E6.45125
G1 X92.644 Y66.500 E6.47525
G1 X92.663 Y66.205 E6.49925
G1 X92.694 Y66.043 E6.51260
G1 X92.474 Y65.716 F7800.000
G1 X56.525 Y58.027
G1 X103.473 Y58.025 F540.000 E10.32239
G1 X103.475 Y101.973 E13.88874
G1 X56.527 Y101.975 E17.69854
G1 X56.525 Y58.118 E21.25746
G1 X55.915 Y57.417 F7800.000
G1 X104.083 Y57.415 F540.000 E25.16625
G1 X104.085 Y102.583 E28.83159
G1 X55.917 Y102.585 E32.74038
G1 X55.915 Y57.508 E36.39830
G1 X55.305 Y57.510 F7800.000
G1 X55.354 Y57.244 F378.000 E36.42019
G1 X55.494 Y57.025 E36.44131
G1 X55.704 Y56.872 E36.46243
G1 X55.956 Y56.807 E36.48355
G1 X103.990 Y56.805 E40.38145
G1 X104.256 Y56.854 E40.40335
G1 X104.475 Y56.994 E40.42446
G1 X104.586 Y57.128 E40.43859
G1 X104.682 Y57.370 E40.45970
G1 X104.695 Y58.510 E40.55221
G1 X104.695 Y102.490 E44.12119
G1 X104.646 Y102.756 E44.14308
G1 X104.506 Y102.975 E44.16419
G1 X104.296 Y103.128 E44.18532
G1 X104.044 Y103.193 E44.20643
G1 X56.010 Y103.195 E48.10434
G1 X55.744 Y103.146 E48.12623
G1 X55.525 Y103.006 E48.14735
G1 X55.372 Y102.796 E48.16847
G1 X55.307 Y102.544 E48.18959
G1 X55.305 Y57.601 E51.83662
G1 X55.553 Y57.404 F7800.000
G1 X91.663 Y68.731
G1 X81.400 Y58.468 F1080.000 E53.01818
G1 X82.265 Y58.468 E53.08862
G1 X91.060 Y67.263 E54.10117
G1 X90.990 Y66.327 E54.17755
G1 X83.131 Y58.468 E55.08239
G1 X83.996 Y58.468 E55.15283
G1 X91.093 Y65.565 E55.96991
G1 X91.310 Y64.917 E56.02557
G1 X84.861 Y58.468 E56.76801
G1 X85.727 Y58.468 E56.83845
G1 X91.611 Y64.352 E57.51586
G1 X91.980 Y63.855 E57.56621
G1 X86.592 Y58.468 E58.18649
G1 X87.457 Y58.468 E58.25693
G1 X92.413 Y63.424 E58.82754
G1 X92.919 Y63.064 E58.87806
G1 X88.322 Y58.468 E59.40729
G1 X89.188 Y58.468 E59.47773
G1 X93.499 Y62.778 E59.97403
G1 X94.159 Y62.573 E60.03029
G1 X90.053 Y58.468 E60.50294
G1 X90.918 Y58.468 E60.57338
G1 X94.938 Y62.487 E61.03614
G1 X95.906 Y62.589 E61.11537
G1 X91.784 Y58.467 E61.58992
G1 X92.649 Y58.467 E61.66036
G1 X97.899 Y63.718 E62.26479
G1 X97.940 Y63.759 F7800.000
G1 X103.033 Y68.851 F1080.000 E62.85110
G1 X103.033 Y69.717 E62.92154
G1 X98.913 Y65.597 E63.39587
G1 X99.017 Y66.566 E63.47521
G1 X103.033 Y70.582 E63.93760
G1 X103.033 Y71.447 E64.00804
G1 X98.925 Y67.340 E64.48097
G1 X98.726 Y68.006 E64.53760
G1 X103.033 Y72.313 E65.03342
G1 X103.033 Y73.178 E65.10386
G1 X98.434 Y68.579 E65.63338
G1 X98.072 Y69.082 E65.68386
G1 X103.033 Y74.044 E66.25503
G1 X103.033 Y74.909 E66.32547
G1 X97.645 Y69.521 E66.94576
G1 X97.154 Y69.895 E66.99603
G1 X103.033 Y75.774 E67.67286
G1 X103.033 Y76.640 E67.74331
G1 X96.583 Y70.189 E68.48591
G1 X95.932 Y70.404 E68.54170
G1 X103.033 Y77.505 E69.35923
G1 X103.033 Y78.370 E69.42968
G1 X95.176 Y70.513 E70.33427
G1 X94.247 Y70.450 E70.41004
G1 X103.033 Y79.236 E71.42155
G1 X103.033 Y67.986 F7800.000
G1 X93.514 Y58.467 F1080.000 E72.51740
G1 X94.380 Y58.467 E72.58784
G1 X103.033 Y67.121 E73.58408
G1 X103.033 Y66.255 E73.65452
G1 X95.245 Y58.467 E74.55113
G1 X96.110 Y58.467 E74.62158
G1 X103.033 Y65.390 E75.41857
G1 X103.033 Y64.525 E75.48901
G1 X96.976 Y58.467 E76.18638
G1 X97.841 Y58.467 E76.25682
G1 X103.033 Y63.659 E76.85456
G1 X103.033 Y62.794 E76.92501
G1 X98.706 Y58.467 E77.42313
G1 X99.572 Y58.467 E77.49358
G1 X103.033 Y61.929 E77.89208
G1 X103.033 Y61.063 E77.96252
G1 X100.437 Y58.467 E78.26140
G1 X101.302 Y58.467 E78.33184
G1 X103.033 Y60.198 E78.53110
G1 X103.033 Y59.332 E78.60154
G1 X102.168 Y58.467 E78.70118
G1 X103.033 Y58.467 E78.77163
G1 X104.185 Y57.271 F7800.000
G1 X93.613 Y64.315
G1 X92.483 Y65.871
G1 X92.891 Y68.011
G1 X92.778 Y69.846
G1 X103.033 Y80.101 F1080.000 E79.95231
G1 X103.033 Y80.966 E80.02276
G1 X80.535 Y58.468 E82.61294
G1 X79.669 Y58.468 E82.68339
G1 X103.033 Y81.832 E85.37320
G1 X103.033 Y82.697 E85.44364
G1 X78.804 Y58.468 E88.23307
G1 X77.939 Y58.468 E88.30352
G1 X103.033 Y83.562 E91.19257
G1 X103.033 Y84.428 E91.26302
G1 X77.073 Y58.468 E94.25169
G1 X76.208 Y58.468 E94.32214
G1 X103.033 Y85.293 E97.41044
G1 X103.033 Y86.158 E97.48088
G1 X75.343 Y58.468 E100.66880
G1 X74.477 Y58.468 E100.73925
G1 X103.033 Y87.024 E104.02679
G1 X103.033 Y87.889 E104.09723
G1 X73.612 Y58.468 E107.48440
G1 X72.747 Y58.468 E107.55484
G1 X103.033 Y88.755 E111.04163
G1 X103.033 Y89.620 E111.11208
G1 X71.881 Y58.468 E114.69848
G1 X71.016 Y58.468 E114.76893
G1 X103.033 Y90.485 E118.45496
G1 X103.033 Y91.351 E118.52541
G1 X70.151 Y58.468 E122.31106
G1 X69.285 Y58.468 E122.38150
G1 X103.033 Y92.216 E126.26678
G1 X103.033 Y93.081 E126.33722
G1 X68.420 Y58.468 E130.32212
G1 X67.555 Y58.468 E130.39257
G1 X103.033 Y93.947 E134.47709
G1 X103.033 Y94.812 E134.54753
G1 X66.689 Y58.469 E138.73167
G1 X65.824 Y58.469 E138.80212
G1 X103.033 Y95.677 E143.08588
G1 X103.033 Y96.543 E143.15633
G1 X64.959 Y58.469 E147.53971
G1 X64.094 Y58.469 E147.61016
G1 X103.033 Y97.408 E152.09317
G1 X103.033 Y98.273 E152.16361
G1 X63.228 Y58.469 E156.74624
G1 X62.363 Y58.469 E156.81669
G1 X103.033 Y99.139 E161.49894
G1 X103.033 Y100.004 E161.56939
G1 X61.498 Y58.469 E166.35126
G1 X60.632 Y58.469 E166.42170
G1 X103.033 Y100.870 E171.30320
G1 X102.829 Y101.531 E171.35955
G1 X59.767 Y58.469 E176.31719
G1 X58.902 Y58.469 E176.38764
G1 X101.964 Y101.531 E181.34528
G1 X101.098 Y101.531 E181.41573
G1 X58.036 Y58.469 E186.37337
G1 X57.171 Y58.469 E186.44382
G1 X100.233 Y101.531 E191.40146
G1 X99.368 Y101.531 E191.47191
G1 X56.967 Y59.130 E196.35341
G1 X56.967 Y59.996 E196.42386
G1 X98.503 Y101.531 E201.20575
G1 X97.637 Y101.531 E201.27619
G1 X56.967 Y60.861 E205.95846
G1 X56.967 Y61.726 E206.02890
G1 X96.772 Y101.531 E210.61155
G1 X95.907 Y101.531 E210.68199
G1 X56.967 Y62.592 E215.16501
G1 X56.967 Y63.457 E215.23546
G1 X95.041 Y101.531 E219.61886
G1 X94.176 Y101.531 E219.68930
G1 X56.967 Y64.322 E223.97308
G1 X56.967 Y65.188 E224.04353
G1 X93.311 Y101.531 E228.22768
G1 X92.445 Y101.532 E228.29813
G1 X56.967 Y66.053 E232.38266
G1 X56.967 Y66.919 E232.45311
G1 X91.580 Y101.532 E236.43802
G1 X90.715 Y101.532 E236.50847
G1 X56.967 Y67.784 E240.39376
G1 X56.967 Y68.649 E240.46420
G1 X89.849 Y101.532 E244.24988
G1 X88.984 Y101.532 E244.32032
G1 X56.967 Y69.515 E248.00637
G1 X56.967 Y70.380 E248.07681
G1 X88.119 Y101.532 E251.66324
G1 X87.253 Y101.532 E251.73369
G1 X56.967 Y71.245 E255.22049
G1 X56.967 Y72.111 E255.29094
G1 X86.388 Y101.532 E258.67812
G1 X85.523 Y101.532 E258.74857
G1 X56.967 Y72.976 E262.03613
G1 X56.967 Y73.841 E262.10658
G1 X84.657 Y101.532 E265.29452
G1 X83.792 Y101.532 E265.36496
G1 X56.967 Y74.707 E268.45328
G1 X56.967 Y75.572 E268.52373
G1 X82.927 Y101.532 E271.51242
G1 X82.062 Y101.532 E271.58287
G1 X56.967 Y76.437 E274.47194
G1 X56.967 Y77.303 E274.54239
G1 X81.196 Y101.532 E277.33185
G1 X80.331 Y101.532 E277.40229
G1 X56.967 Y78.168 E280.09212
G1 X56.967 Y79.034 E280.16257
G1 X79.466 Y101.532 E282.75278
G1 X78.600 Y101.532 E282.82322
G1 X56.967 Y79.899 E285.31381
G1 X56.967 Y80.764 E285.38426
G1 X77.735 Y101.532 E287.77523
G1 X76.870 Y101.532 E287.84567
G1 X56.967 Y81.630 E290.13702
G1 X56.967 Y82.495 E290.20747
G1 X76.004 Y101.532 E292.39919
G1 X75.139 Y101.532 E292.46964
G1 X56.967 Y83.360 E294.56174
G1 X56.967 Y84.226 E294.63219
G1 X74.274 Y101.532 E296.62467
G1 X73.408 Y101.532 E296.69511
G1 X56.967 Y85.091 E298.58797
G1 X56.967 Y85.956 E298.65842
G1 X72.543 Y101.532 E300.45166
G1 X71.678 Y101.533 E300.52210
G1 X56.967 Y86.822 E302.21572
G1 X56.967 Y87.687 E302.28617
G1 X70.812 Y101.533 E303.88016
G1 X69.947 Y101.533 E303.95060
G1 X56.967 Y88.552 E305.44498
G1 X56.967 Y89.418 E305.51543
G1 X69.082 Y101.533 E306.91018
G1 X68.217 Y101.533 E306.98062
G1 X56.967 Y90.283 E308.27575
G1 X56.967 Y91.149 E308.34620
G1 X67.351 Y101.533 E309.54171
G1 X66.486 Y101.533 E309.61215
G1 X56.967 Y92.014 E310.70804
G1 X56.967 Y92.879 E310.77849
G1 X65.621 Y101.533 E311.77475
G1 X64.755 Y101.533 E311.84520
G1 X56.967 Y93.745 E312.74184
G1 X56.967 Y94.610 E312.81229
G1 X63.890 Y101.533 E313.60931
G1 X63.025 Y101.533 E313.67975
G1 X56.967 Y95.475 E314.37716
G1 X56.967 Y96.341 E314.44760
G1 X62.159 Y101.533 E315.04538
G1 X61.294 Y101.533 E315.11583
G1 X56.967 Y97.206 E315.61398
G1 X56.967 Y98.071 E315.68443
G1 X60.429 Y101.533 E316.08296
G1 X59.563 Y101.533 E316.15341
G1 X56.967 Y98.937 E316.45231
G1 X56.967 Y99.802 E316.52275
G1 X58.698 Y101.533 E316.72203
G1 X57.833 Y101.533 E316.79248
G1 X56.967 Y100.667 E316.89213
G1 X56.967 Y101.533 E316.96259
G1 F1800.000 E314.96259
G1 Z1.020
G92 E0
G1 X92.032 Y69.287 F7800.000
G1 Z0.520
G1 F1800.000 E2.00000
G1 X91.706 Y68.893 F1800.000 E2.03432
G1 X91.432 Y68.461 E2.06864
G1 X91.214 Y67.999 E2.10293
G1 X91.056 Y67.512 E2.13727
G1 X90.960 Y67.010 E2.17158
G1 X90.928 Y66.500 E2.20589
G1 X90.960 Y65.990 E2.24020
G1 X91.056 Y65.487 E2.27452
G1 X91.214 Y65.001 E2.30884
G1 X91.432 Y64.539 E2.34314
G1 X91.706 Y64.107 E2.37745
